X:411
T:Destitution, The
C:Ian Stephenson
R:reel
D:Kathryn Tickell Band
D:L\'a Lugh
Z:id:hn-reel-411
M:C|
K:Em
E2{c}BE cE{c}BE|dcBc ABGA|E2{c}BE cEBE|{c}AGFG Ad{c}BG|
E2{c}BE cEBE|dcBc ABGA|EBFB GBFB|{c}AGFG {c}BEE2:|
|:Bede bede|Bede fga2|Bede bede|AB{c}BA BE~E2|
Bede bede|Bede fga2|b2af {a}gfed|1 AB{c}BA BE~E2:|2 AB{c}BA GAFG||
